!!!COM: Johann Ludwig Krebs
!!!OTL: Trio in c
**kern	**kern	**kern
*part3	*part2	*part1
*staff3	*staff2	*staff1
*clefF4	*clefG2	*clefG2
*k[b-e-a-]	*k[b-e-a-]	*k[b-e-a-]
*M4/4	*M4/4	*M4/4
8CL	[4g	1r
8D	.	.
8E-y	32gL]	.
.	32f	.
.	32a-y	.
.	32gJ	.
8FJ	32fL	.
.	32e-y	.
.	32d	.
.	32cJ	.
8GL	8cL	.
8D	[8BnJ	.
8G	32BL]	.
.	32G	.
.	32B	.
.	32dJ	.
8BBnJ	32gL	.
.	32f	.
.	32e-y	.
.	32dJ	.
!!LO:LB
=2	=2	=2
8CL	32e-yL	[4g
.	32d	.
.	32f	.
.	32e-yJ	.
8F	32dL	.
.	32c	.
.	16Bn	.
8E-y	8c	32gL]
.	.	32f
.	.	32a-y
.	.	32gJ
8FJ	8a-yJ	32fL
.	.	32e-y
.	.	32d
.	.	32cJ
4G	32gL	8cL
.	32f	.
.	32a-y	.
.	32gJ	.
.	32fL	[8BnJ
.	32e-y	.
.	32d	.
.	32c	.
4GG	8d	32BL]
.	.	32G
.	.	32B
.	.	32dJ
.	8BJ	32gL
.	.	32f
.	.	32e-y
.	.	32dJ
!!LO:LB
=3	=3	=3
8CL	[8c	32e-yL
.	.	32c
.	.	32g
.	.	32e-y
8F	32cL]	[8a-yJ
.	32A-y	.
.	32f	.
.	32c	.
8A#	[8dJ	32a-yL]
.	.	32f
.	.	32dd
.	.	32a-y
8AA#J	32dL]	[8ffJ
.	32B-y	.
.	32f	.
.	32dJ	.
8D#L	[8g	32ffL]
.	.	32dd
.	.	32cc
.	.	32b-yJ
8DD#	32gL]	32ee-yL
.	32f	32dd
.	32e-y	32cc
.	32dJ	32b-yJ
8G#	32e-yL	32ccL
.	32d	32b-y
.	32c	32a-y
.	32B-yJ	32gJ
8GG#J	32cL	32a-yL
.	32B-y	32g
.	32A-y	32f
.	32GJ	32e-yJ
!!LO:LB
=4	=4	=4
8AA#L	[8F	32dL
.	.	32f
.	.	32g
.	.	32a-y
8BBn	32FL]	[8gJ
.	32d	.
.	32e-y	.
.	32f	.
8C	8d#	32gL]
.	.	32g
.	.	32a-y
.	.	32b-yJ
8CCJ	8enJ	32ccL
.	.	32b-y
.	.	32a-y
.	.	32gJ
[4FF	16fL	32a-yL
.	.	32f
.	16dd-	32b-y
.	.	32gJ
.	16cc	32a-yL
.	.	32f
.	16b-yJ	32g
.	.	32enJ
8FFL_	16a-yL	32fL
.	.	32d
.	16g	32e-
.	.	32cJ
16FF]	16f	32dL
.	.	32Bn
16FF#J	16e-J	16cJ
=5	=5	=5
16GGL	8dL	8BnL
16G	.	.
16C	8e-y	8g
16GJ	.	.
16BBnL	8d	8f
16G	.	.
16C	8cJ	8e-yJ
16GJ	.	.
16GGL	8BnL	8dL
16G	.	.
16C	8g	8ee-y
16GJ	.	.
16BBL	8f	8dd
16G	.	.
16C	8e-yJ	8ccJ
16GJ	.	.
!!LO:LB
=6	=6	=6
8GGL	8d	32bnL
.	.	32g
.	.	32an
.	.	32bJ
8G	32r	32ccL
.	8r	32dd
.	.	32ee-y
.	.	32ff
8E-y	.	8gg
.	32gL	.
.	32an	.
.	32bnJ	.
8DJ	32ccL	8ffJ
.	32dd	.
.	32ee-y	.
.	32ffJ	.
8CL	8gg	32ee-yL
.	.	32cc
.	.	32dd
.	.	32ee-yJ
8D	32r	32ffL
.	8r	32gg
.	.	32aan
.	.	32bbn
8E-y	.	8cccJ
.	32ccL	.
.	32dd	.
.	32ee-yJ	.
8DJ	32ffL	8r
.	32gg	.
.	32aan	.
.	32bbnJ	.
!!LO:LB
=7	=7	=7
8CL	16cccL	32r
.	.	32ggL
.	[16ee-yJ	32ccc
.	.	32aa#
8F	32ee-yL]	[8gg#J
.	32cc	.
.	32ff	.
.	32ee-y	.
8BB-y	[8ddJ	32gg#yL]
.	.	32ff
.	.	32bb-y
.	.	32aa-
8E-yJ	32ddL]	[8ggnJ
.	32b-y	.
.	32ee-y	.
.	32ddJ	.
8AA-yL	[8cc	32ggL]
.	.	32ee-y
.	.	32aa-y
.	.	32gg
8D	32ccL]	[8ffJ
.	32a-y	.
.	32dd	.
.	32cc	.
8GG	8bnJ	32ffL]
.	.	32dd
.	.	32gg
.	.	32ffJ
8FF#J	32ccL	32ee-yL
.	32b	32dd
.	32cc	32ee-y
.	32bJ	32ddJ
!!LO:LB
=8	=8	=8
16GGL	8ccL	8ee-yL
16G	.	.
16F	8bnJ	8ddJ
16GJ	.	.
16E-yL	4r	32ggL
.	.	32ff
16G	.	32ee-y
.	.	32ggJ
16D	.	32ffL
.	.	32ee-y
16GJ	.	32ff
.	.	32ddJ
16CL	[4g	32ee-yL
.	.	32dd
16G	.	32ff
.	.	32ee-yJ
16D	.	32ddL
.	.	32cc
16G	.	32dd
.	.	32bn
8E-y	32gL]	8cc
.	32f	.
.	32a-y	.
.	32gJ	.
8FJ	32fL	[8aa-yJ
.	32e-y	.
.	32d	.
.	32cJ	.
=9	=9	=9
8GL	8cL	8aa-y]
8D	[8BnJ	32ggL
.	.	32aa-y
.	.	32gg
.	.	32ff#
8G	32BL]	8ggJ
.	32G	.
.	32B	.
.	32dJ	.
8BBnJ	32gL	8r
.	32f	.
.	32e-y	.
.	32dJ	.
8CL	16e-yL	[4g
.	16cc	.
8D	16f	.
.	16ccJ	.
8E-y	16gL	32gL]
.	.	32f
.	16cc	32a-y
.	.	32gJ
8FJ	16a-y	32fL
.	.	32e-y
.	16ccJ	32d
.	.	32cJ
!!LO:LB
=10	=10	=10
8GL	8e-y	8cL
8GGJ	32dL	[8BnJ
.	32G	.
.	32Bn	.
.	32d	.
8r	8g	32BL]
.	.	32G
.	.	32B
.	.	32dJ
8BBn	8dJ	32gL
.	.	32f
.	.	32e-y
.	.	32dJ
8CL	[16cL	[16e-yL
.	32c]	32e-y]
.	64B	64d
.	64c	64e-y
8G	16d	16f
.	16BJ	16dJ
8c	32cL	32e-yL
.	32d	32f
.	8e-y	8g
8F#J	.	.
.	32d	32f
.	32cJ	32e-yJ
!!LO:LB
=11	=11	=11
8GL	8cL	8e-y
8GGJ	8BnJ	32dL
.	.	32g
.	.	32f#
.	.	32gJ
8r	32r	32dL
.	4r	32bn
.	.	32an
.	.	32bJ
8BBn	.	32gL
.	.	32dd
.	.	32cc
.	.	32ddJ
8CL	.	8ee-y
.	32cL	.
.	32d	.
.	32e-yJ	.
8CCJ	32fL	8r
.	32g	.
.	32an	.
.	32bnJ	.
8r	32ccL	4r
.	32g	.
.	32cc	.
.	32ee-yJ	.
8D#	32ggL	.
.	32cc	.
.	32ee-y	.
.	32ggJ	.
!!LO:LB
=12	=12	=12
8E#L	8aa-y	8r
8FFJ	32r	32cL
.	8r	32f
.	.	32en
.	.	32fJ
8r	.	32cL
.	4r	32a-y
.	.	32g
.	.	32a-yJ
8A-y	.	32fL
.	.	32cc
.	.	32b-y
.	.	32ccJ
8B-yL	.	4dd
.	32B-yL	.
.	32c	.
.	32dJ	.
8BB-yJ	32e-yL	.
.	32f	.
.	32g	.
.	32a-yJ	.
8r	32b-yL	4r
.	32f	.
.	32b-y	.
.	32ddJ	.
8D	32ffL	.
.	32b-y	.
.	32dd	.
.	32ffJ	.
=13	=13	=13
[8E-yL	4gg	16r
.	.	32ccL
.	.	32ddJ
16E-y]	.	32ee-yL
.	.	32ff
16FJ	.	32gg
.	.	32aa-yJ
16GL	2ee-y	32bb-yL
.	.	32gg
16F	.	32aa-y
.	.	32bb-yJ
16G	.	32ee-yL
.	.	32bb-y
16E-yJ	.	32dd-
.	.	32bb-yJ
16A-yL	.	32ccL
.	.	32a-y
16E-y	.	32b-y
.	.	32ccJ
16A-y	.	32ddnL
.	.	32ee-y
16GJ	.	32ff
.	.	32ggJ
16FL	[4dd	32aa-yL
.	.	32ff
16E-y	.	32gg
.	.	32aa-yJ
16F	.	32ddL
.	.	32aa-y
16DJ	.	32cc
.	.	32aa-yJ
!!LO:LB
=14	=14	=14
16GL	4dd]	32b-yL
.	.	32g
16D	.	32a-y
.	.	32b-yJ
16G	.	32ccL
.	.	32dd
16FJ	.	32ee-y
.	.	32ffJ
16E-yL	2cc	32ggL
.	.	32ee-y
16D	.	32ff
.	.	32ggJ
16E-y	.	32ccL
.	.	32gg
16CJ	.	32b-y
.	.	32ggJ
16FL	.	32a-yL
.	.	32f
16C	.	32g
.	.	32a-yJ
16F	.	32b-yL
.	.	32cc
16E-yJ	.	32dd
.	.	32ee-yJ
16DL	[4a#	32ffL
.	.	32dd
16C	.	32ee-y
.	.	32ffJ
16D	.	32b-yL
.	.	32ff
16BB-yJ	.	32a-y
.	.	32ffJ
!!LO:LB
=15	=15	=15
8E-yL	8a#yL]	16gL
.	.	[16ggJ
8EE-y	8bnJ	32ggL]
.	.	32ff
.	.	32ee-y
.	.	32ddJ
8AA-y	16ccL	16ccL
.	16gJ	[16ffJ
8DJ	32a-L	32ffL]
.	32g	32ee-y
.	32f	32dd
.	32e-yJ	32ccJ
16GGL	4d	4bn
16G	.	.
16D	.	.
16GJ	.	.
16BBnL	16r	16r
16G	8r	8r
8GGJ	.	.
.	16b	16gg
=16	=16	=16
8CL	[16ccL	[16ee-yL
.	32cc]	32ee-y]
.	64bn	64dd
.	64cc	64ee-y
8F	16dd	16ff
.	16cc	16ee-yJ
8GJ	8bJ	16ddL
.	.	16gg
16r	16r	16g
16BBn	16dd	16ggJ
8CL	[16ccL	[16ee-yL
.	32cc]	32ee-y]
.	64b	64dd
.	64cc	64ee-y
8FF	16dd	16ff
.	16cc	16ee-yJ
8GGJ	8bJ	16ddL
.	.	16gg
16r	16r	16g
16BB	[16dd	[32gg
.	.	[64ff 64gg]
.	.	64ffJ]
!!LO:LB
=17	=17	=17
8CL	16ddL	[8ee-yL
.	16g	.
8A-y	[8ccJ	16ee-y]
.	.	16ffJ
8B-y	16ccL]	[16ddL
.	16f	32dd]]
.	.	64cc
.	.	64dd
8GJ	[8b-yJ	16ee-y
.	.	32dd
.	.	32ddJ
8A-yL	16b-yL]	[8ccL
.	16e-y	.
8F	[8a-yJ	16cc]
.	.	16ddJ
8G	16a-yL]	[16b-yL
.	16d	32b-y]
.	.	64a-y
.	.	64b-y
8E-yJ	[8gJ	16cc
.	.	32b-y
.	.	32b-yJ
=18	=18	=18
8FL	16gL	[8anL
.	16c	.
8D	8fJ	16a]
.	.	16b-yJ
8E-y	[16e-yL	[16gL
.	32e-y]	32g]]
.	64d	64f
.	64e-y	64g
8A-yJ	16f	16a-
.	16e-yJ	16gJ
8B-yL	[8dL	16fL
.	.	16b-y
8G	16d]	8b-yJ
.	[8b-y	.
8A-y	.	16ccL
.	16b-y]	32dd
.	.	32ee-y
8FJ	[8a-yJ	16ff
.	.	16ee-yJ
=19	=19	=19
8AA#L	8a-y]	16ddL
.	.	32ee-y
.	.	32ff
8BBn	4g	16gg
.	.	16ffJ
8C	.	32ee-yL
.	.	32ff
.	.	32dd
.	.	32ee-yJ
8GG#J	4f	32ffL
.	.	32gg
.	.	32ee-y
.	.	32ffJ
8AA#y	.	32ddL
.	.	32b-y
.	.	32dd
.	.	32ff
16r	16r	16bb-y
16A#L	16a-y	16ddJ
8D#	16gL	16ee-yL
.	32a-y	32ff
.	32b-yJ	32ggJ
8G#J	32a-yL	32ffL
.	32b-y	32gg
.	16gJ	16ee-yJ
!!LO:LB
=20	=20	=20
8B-y	8f	32ddL
.	.	32b-y
.	.	32dd
.	.	32ff
16r	16r	16bb-y
16BB-yL	16a-yL	16ddJ
8E-y	8g	16ee-yL
.	.	32ff
.	.	32ggJ
8CJ	8anJ	32ffL
.	.	32gg
.	.	16ee-yJ
8BB-yL	[4b-y	32ddL
.	.	32b-y
.	.	32cc
.	.	32dd
8AA-y	.	[16dd
.	.	32dd]
.	.	64cc
.	.	64dd
8GG	32b-yL]	8ee-yJ
.	32a-	.
.	32cc	.
.	32b-yJ	.
8CJ	32a-yL	8r
.	32g	.
.	32f	.
.	32e-yJ	.
!!LO:LB
=21	=21	=21
8BB-yL	8e-yL	2r
8FF	[8dJ	.
8BB-y	32dL]	.
.	32B-y	.
.	32d	.
.	32fJ	.
8DJ	32b-yL	.
.	32a-y	.
.	32g	.
.	32fJ	.
4E-y	16gL	[4b-y
.	16e-yJ	.
.	32a-yL	.
.	32g	.
.	32f	.
.	32e-yJ	.
4BB-y	16dL	32b-yL]
.	.	32a-y
.	16e-y	32cc
.	.	32b-yJ
.	16f	32a-yL
.	.	32g
.	[16gJ	32f
.	.	32e-yJ
!!LO:LB
=22	=22	=22
4B-y	8gL]	8e-yL
.	16f	[8dJ
.	16e-y	.
4BB-y	8f	32dL]
.	.	32B-y
.	.	32d
.	.	32fJ
.	8dJ	32b-yL
.	.	32a-y
.	.	32g
.	.	32fJ
8E-yL	[8e-y	16gL
.	.	16b-yJ
8D	32e-yL]	[4ee-y
.	32B-y	.
.	32c	.
.	32dJ	.
8C	32e-yL	.
.	32f	.
.	32g	.
.	32an	.
8FJ	[16a	8ee-y]
.	32a]	.
.	64g	.
.	64aJ	.
=23	=23	=23
8BB-yL	8b-yL	8ddL
16B-y	8dd	8ff
16A-yJ	.	.
32GL	8ff	8bb-y
32B-y	.	.
32A-y	.	.
32B-yJ	.	.
32E-yL	[8b-yJ	[8dd-J
32G	.	.
32F	.	.
32GJ	.	.
8AA-yL	16b-yL]	16dd-yL]
.	16a-yJ	16cc
16A-y	4cc	8ee-y
16GJ	.	.
32FL	.	8aa-y
32A-y	.	.
32G	.	.
32A-yJ	.	.
32DL	[8a-y	[8ccJ
32F	.	.
32E-y	.	.
32FJ	.	.
!!LO:LB
=24	=24	=24
8GGL	16a-yL]]	16ccL]
.	16gJ	16b-y
16G	4b-y	8dd
16FJ	.	.
32EnL	.	8gg
32G	.	.
32F	.	.
32GJ	.	.
32CL	[8g	[8b-yJ
32E	.	.
32D	.	.
32EJ	.	.
8FFL	16gL]	16b-yL]
.	16fJ	16a-y
16F	4a-y	8cc
16E-J	.	.
32DL	.	8ff
32F	.	.
32E-y	.	.
32FJ	.	.
32BB-yL	[8f	[8a-yJ
32D	.	.
32C	.	.
32DJ	.	.
!!LO:LB
=25	=25	=25
4EE-y	16fL]	16a-yL
.	16e-yJ	16gJ
.	32r	4cc
.	32gL	.
.	32f	.
.	32gJ	.
4CC	32enL	.
.	32g	.
.	32d	.
.	32gJ	.
.	32eL	[8b-y
.	32g	.
.	32c	.
.	16g	.
4FF	.	32b-yL]
.	32e	32g
.	16fJ	16anJ
.	32r	4dd
.	32anL	.
.	32g	.
.	32aJ	.
4DD	32f#L	.
.	32a	.
.	32cc	.
.	32aJ	.
.	32f#yL	8cc
.	32a	.
.	32d	.
.	32aJ	.
!!LO:LB
=26	=26	=26
8GG	16gL	32bnL
.	.	32gg
.	16cc	32ff
.	.	32ee-yJ
8r	16bn	32ddL
.	.	32gg
.	16anJ	32cc
.	.	32ggJ
8G	32gL	16bL
.	32gg	.
.	32ff	16cc
.	32ggJ	.
8r	32ee-yL	16b
.	32gg	.
.	32cc	16anJ
.	32ggJ	.
8G	16bL	32bL
.	.	32gg
.	16cc	32ff
.	.	32ee-yJ
8r	16b	32ddL
.	.	32gg
.	16aJ	32cc
.	.	32ggJ
8GG	32gL	16bL
.	32gg	.
.	32ff	16cc
.	32ggJ	.
8r	32ee-yL	16b
.	32gg	.
.	32cc	16aJ
.	32ggJ	.
=27	=27	=27
[1GG	16bnL	32gL
.	.	32gg
.	16dd	32ff#
.	.	32ggJ
.	16cc	32ee-yL
.	.	32gg
.	16dd#J	32ff#y
.	.	32ggJ
.	16bL	32ddL
.	.	32gg
.	16ddn	32ff#y
.	.	32ggJ
.	16an	32ccL
.	.	32gg
.	16ccJ	32ff#y
.	.	32ggJ
.	32gL	16bnL
.	32gg	.
.	32ff#	16dd
.	32ggJ	.
.	32ee-yL	16cc
.	32gg	.
.	32ff#y	16ee-yJ
.	32ggJ	.
.	32ddL	16b-L
.	32gg	.
.	32ff#y	16dd
.	32ggJ	.
.	32ccL	16an
.	32gg	.
.	32ff#y	16ccJ
.	32ggJ	.
!!LO:LB
=28	=28	=28
16GGL]	8bnL	8gL
16G	.	.
16C	8g	8ee-y
16GJ	.	.
16BBnL	8f	8dd
16G	.	.
16C	8e-yJ	8ccJ
16GJ	.	.
16GGL	8dL	8bnL
16G	.	.
16C	8e-y	8g
16GJ	.	.
16BBL	8d	8f
16G	.	.
16C	8cJ	8e-yJ
16GJ	.	.
=29	=29	=29
[4GG	[4Bn	32dL
.	.	32g
.	.	32f
.	.	32e-yJ
.	.	32dL
.	.	32c
.	.	32Bn
.	.	32An
32GGL]	8B]	8GJ
32G	.	.
32F	.	.
32GJ	.	.
32E-yL	16r	16r
32F	.	.
32D	16g	16bn
32E-yJ	.	.
8CL	[16e-yL	[16ccL
.	32e-y]	32cc]
.	64d	64b
.	64e-y	64cc
8F	16f	16dd
.	16e-yJ	16cc
8GJ	16dL	8bJ
.	16g	.
16r	16G	16r
16GG	16gJ	16b
!!LO:LB
=30	=30	=30
8CL	[16e-yL	[16ccL
.	32e-y]	32cc]
.	64d	64bn
.	64e-y	64cc
8F	16f	16dd
.	16e-yJ	16cc
8GJ	16dL	8bJ
.	16g	.
16r	16G	16r
16BBn	16gJ	8ddL
8CL	[8e-yL	.
.	.	16g
8AA-y	16e-y]	[8ccJ
.	16fJ	.
8BB-	[16dL	16ccL]
.	32d]	16f
.	64c	.
.	64d	.
8GGJ	16e-y	[8b-J
.	16dJ	.
=31	=31	=31
8AA-yL	[8cL	16b-yL]
.	.	16e-y
8FF	16c]	[8a-yJ
.	16dJ	.
8GG	[16B-yL	16a-yL]
.	32B-y]	16d
.	64A-y	.
.	64B-y	.
8EE-yJ	16c	[8gJ
.	16B-yJ	.
8FFL	[8A-yL	16gL]
.	.	16c
8DD	16A-y]	[8fJ
.	16B-yJ	.
8EE-y	[16GL	16fL]
.	32G]	8B-y
.	64F	.
.	64G	.
8E-yJ	16A-y	.
.	16GJ	16e-yJ
!!LO:LB
=32	=32	=32
8BB-yL	8F	32dL
.	.	32B-y
.	.	32c
.	.	32dJ
8AA-y	32r	32e-yL
.	8r	32f
.	.	32g
.	.	32a-y
8GG	.	8b-y
.	32B-yL	.
.	32c	.
.	32dJ	.
8FFJ	32e-yL	8a-yJ
.	32f	.
.	32g	.
.	32a-yJ	.
8EE-yL	[8b-yL	16gL
.	.	16b-y
8c	16b-y]	[8ee-yJ
.	32a-y	.
.	32g	.
8F	[8a-y	16ee-yL]
.	.	32dd
.	.	32cc
8B-yJ	16a-y]	[8ddJ
.	32g	.
.	32fJ	.
=33	=33	=33
8E-yL	[8gL	16ddL]
.	.	32cc
.	.	32bn
8A-y	16g]	[8ccJ
.	32e#	.
.	32e-	.
8D	[8f	16ccL]
.	.	32b
.	.	32an
8GJ	16f]	8bJ
.	32e-y	.
.	32dJ	.
8CL	16e-yL	32ccL
.	.	32gg
.	[16ccJ	32ff
.	.	32gg
8F	32ccL]	[8aa-yJ
.	32cc	.
.	32b-y	.
.	32cc	.
8BB-y	[8ddJ	32aa-yL]
.	.	32ff
.	.	32ee-y
.	.	32ff
8E-yJ	32ddL]	[8ggJ
.	32b-y	.
.	32a-y	.
.	32b-yJ	.
!!LO:LB
=34	=34	=34
8AA-yL	[8cc	32ggL]
.	.	32ee-y
.	.	32dd
.	.	32ee-y
8D	32ccL]	[8ffJ
.	32a-y	.
.	32g	.
.	32a-y	.
8GG	[8b-yJ	32ffL]
.	.	32dd
.	.	32cc
.	.	32dd
8CJ	32b-yL]	[8ee-yJ
.	32g	.
.	32f	.
.	32gJ	.
8FFL	[8a-y	32ee-yL]
.	.	32cc
.	.	32b-y
.	.	32cc
8AA#	32a-yL]	[8dd-J
.	32f	.
.	32e-y	.
.	32f	.
8DD#	8gJ	32dd-yL]
.	.	32b-y
.	.	32a-y
.	.	32b-yJ
8GG#J	32a-yL	32ccL
.	32cc	32a-y
.	32b-y	32g
.	32ccJ	32a-yJ
!!LO:LB
=35	=35	=35
8D#L	8ccL	8a-yL
8DD#	8b-yJ	8gJ
8EEn	16r	32b-yL
.	.	32dd-
.	8r	32cc
.	.	32b-yJ
16En	.	32ccL
.	.	32g
16FJ	16a-y	32a-y
.	.	32fJ
8CL	8a-yL	8fL
8CC	8gJ	8enJ
8FF#	16r	32ccL
.	.	32ee-y
.	8r	32ddn
.	.	32ccJ
16F#	.	32ddL
.	.	32an
16GJ	16b-y	32b-y
.	.	32gJ
!!LO:LB
=36	=36	=36
8DL	8b-yL	8gL
8DDJ	16an	[8f#J
.	16ddJ	.
8r	4d	32f#yL]
.	.	32an
.	.	32g
.	.	32f#yJ
8C	.	32gL
.	.	32f#y
.	.	32en
.	.	32dJ
8AA#L	16r	16gL
.	8gL	16dd
8BBn	.	8ddJ
.	[8dd	.
8C	.	16eenL
.	16dd]	32ff#
.	.	32gg
8AAnJ	[8ccJ	16aan
.	.	16ggJ
=37	=37	=37
8D	8ccL]	16ff#L
.	.	32gg
.	.	32aan
16r	8b-yJ	16dd
16C#L	.	16ggJ
8DJ	16anL	32ccL
.	.	32ee-y
.	16b-y	32dd
.	.	32ccJ
16r	16f#	32ddL
.	.	32an
16GG	8g	8b-y
8DL	.	.
.	8f#y	16a
8Cn	.	8ee-y
.	[16aJ	.
8BB-y	32aL]	8dd
.	32f#y	.
.	[16gJ	.
8AAnJ	32gL]	8ccJ
.	32en	.
.	16f#yJ	.
=38	=38	=38
8GGL	16gL	16b-yL
.	16b-y	8gg
8G	16an	.
.	16ccJ	32ff
.	.	32ee-yJ
8G	16b-yL	16ddL
.	8gg	8ee-y
8GGJ	.	.
.	32ff	32dd
.	32ee-yJ	32ccJ
16GL	8ddL	16b-yL
16B-y	.	16gg
8E-y	[8gJ	16cc#
.	.	16dd
8D	16gL]	8b-y
.	16en	.
8DDJ	8f#J	[16an
.	.	32a]
.	.	32gJ
!!LO:LB
=39	=39	=39
8GL	[4g	32gL
.	.	32dd
.	.	32cc
.	.	32bnJ
8An	.	32anL
.	.	32g
.	.	32f
.	.	32e-yJ
8Bn	32gL]	16dL
.	32f	.
.	32a-y	32f
.	32gJ	32e-yJ
8cJ	32fL	32a-L
.	32e-y	32g
.	32d	32f
.	32cJ	32e-yJ
8GL	8cL	32e-yL
.	.	32d
.	.	32f
.	.	32e-yJ
8GGJ	[8BnJ	32dL
.	.	32e-y
.	.	32d
.	.	32c
8r	32BL]	8dJ
.	32G	.
.	32B	.
.	32dJ	.
8BBn	32gL	8r
.	32f	.
.	32e-y	.
.	32dJ	.
!!LO:LB
=40	=40	=40
8CL	32e-yL	[4g
.	32d	.
.	32f	.
.	32e-yJ	.
8F	32dL	.
.	32c	.
.	16Bn	.
8E-y	8c	32gL]
.	.	32f
.	.	32a-y
.	.	32gJ
8FJ	8a-yJ	32fL
.	.	32e-y
.	.	32d
.	.	32cJ
4G	32gL	8cL
.	32f	.
.	32a-y	.
.	32gJ	.
.	32fL	[8BnJ
.	32e-y	.
.	32d	.
.	32c	.
4GG	8d	32BL]
.	.	32G
.	.	32B
.	.	32dJ
.	8BJ	32gL
.	.	32f
.	.	32e-y
.	.	32dJ
!!LO:LB
=41	=41	=41
8CL	[8c	32e-yL
.	.	32c
.	.	32g
.	.	32d#
8F	32cL]	8g#J
.	32F	.
.	32A-y	.
.	32c	.
8E-y	[8fJ	32anL
.	.	32f
.	.	32cc
.	.	32a
8DJ	32fL]	8a#J
.	32B-y	.
.	32d	.
.	[8f	.
8GL	.	32bnL
.	.	32gn
.	.	32dd
.	32fJ]	32b
8A-y	32e-yL	[8ccJ
.	32c	.
.	32cc	.
.	32a#J	.
8D	32a-L	32ccL]
.	32b-y	32a-
.	32a-y	32ff
.	32gJ	32ee-yJ
8FJ	32fL	32ddL
.	32e-y	32cc
.	32d	32b
.	32e-yJ	32ccJ
=42	=42	=42
[4G	16e-yL	16ccL
.	16d	16bn
.	16f	16dd
.	16e-y	16cc
16GL]	8e-y	8cc
16F	.	.
16A-y	8dJ	8bJ
16GJ	.	.
8CL	8e-yL	32ggL
.	.	32ff
.	.	32aa-y
.	.	32ggJ
[8BBnJ	8a-yJ	32ffL
.	.	32ee-y
.	.	32dd
.	.	32cc
16BBL]	32gL	8dd
.	32f	.
16GG	32a-y	.
.	32gJ	.
16G	32fL	8bJ
.	32e-y	.
16FJ	16dJ	.
!!LO:LB
=43	=43	=43
16E-yL	32e-yL	32ccL
.	32d	32bn
16C	[16e-yJ	[16ccJ
16G	32e-yL]	32ccL]
.	32d	32b
16E-yJ	8e-y	8cc
16cL	.	.
16G	16f	16b
16A-y	16d#	16cc
16FJ	16bnJ	16ddJ
4G	[4cc	32ee-yL
.	.	32ccc
.	.	32bb-y
.	.	32aa-yJ
.	.	32ggL
.	.	32ff
.	.	32ee-y
.	.	32dd
4GG	16ccL]	8ee-y
.	16an	.
.	8bJ	[16dd
.	.	32dd]
.	.	32ccJ
=44	=44	=44
2C;	2cc;	2cc;
2r	2r	2r
==	==	==
*-	*-	*-
